public/learn-icon.svg

<svg width="60" height="60" viewBox="0 0 60 60" fill="none" xmlns="http://www.w3.org/2000/svg">
<path d="M23.269 58.4536V51.2095C19.8468 52.4947 17.9919 52.6963 14.9103 51.2095C11.8288 49.7227 10.713 46.7419 11.0097 36.7212C9.20669 36.6624 8.15533 36.4746 5.99449 35.0495C5.99449 35.0495 4.88 34.4922 4.88 33.3777C4.88 32.2633 10.6872 23.2044 10.6872 23.2044C10.6872 23.2044 10.6872 23.0187 10.6872 22.6472C10.6872 22.6472 12.156 15.7801 14.9103 11.9316C17.6647 8.08307 24.9112 4.44898 24.9407 4.40115C30.1723 2.74699 33.2295 2.67334 38.8718 3.84391C43.1972 5.31768 45.5018 6.58339 49.4594 9.41633C53.3242 13.1677 53.8819 15.2217 55.0318 18.8894C56.6734 24.4881 56.2788 27.326 55.0318 32.2633C53.1982 37.6467 51.2727 40.2285 48.3449 45.0798V58.4536" stroke="black" stroke-width="1.5"/>
<path d="M31.5248 41.3092V19.7884M31.5248 19.7884L26.0592 24.9124M31.5248 19.7884L36.9904 24.9124" stroke="black" stroke-width="1.5" stroke-linecap="round" stroke-linejoin="round"/>
</svg>

<svg xmlns="http://www.w3.org/2000/svg" width="60" height="60" fill="none" stroke="#000" stroke-width="1.5" xmlns:v="https://vecta.io/nano"><path d="M23.269 58.454V51.21c-3.422 1.285-5.277 1.487-8.359 0s-4.197-4.468-3.901-14.488c-1.803-.059-2.854-.247-5.015-1.672 0 0-1.114-.557-1.114-1.672s5.807-10.173 5.807-10.173v-.557s1.469-6.867 4.223-10.716 10.001-7.483 10.03-7.53c5.232-1.654 8.289-1.728 13.931-.557 4.325 1.474 6.63 2.739 10.588 5.572 3.865 3.751 4.422 5.805 5.572 9.473 1.642 5.599 1.247 8.437 0 13.374-1.834 5.383-3.759 7.965-6.687 12.816v13.374"/><path d="M31.525 41.309V19.788m0 0l-5.466 5.124m5.466-5.124l5.466 5.124" stroke-linecap="round" stroke-linejoin="round"/></svg>
